img/star.svg

<svg width="32" height="32" fill="none" xmlns="http://www.w3.org/2000/svg"><path d="M15.9994 25.3845l8.4265 4.4571-.9412-10.3999 6.1177-6.7347-8.9412-1.951-4.6618-8.5978-5.2206 8.5978-8.38232 1.951 6.02942 7.1918-1.41177 9.9428 8.98527-4.4571z" fill="#F4003B" stroke="#000" stroke-width="3" stroke-linejoin="round"/></svg>

<svg width="32" height="32" viewBox="0 0 32 32" fill="none" xmlns="http://www.w3.org/2000/svg">
<path d="M15.9994 25.3845L24.4259 29.8416L23.4847 19.4417L29.6024 12.707L20.6612 10.756L15.9994 2.1582L10.7788 10.756L2.39648 12.707L8.4259 19.8988L7.01413 29.8416L15.9994 25.3845Z" fill="#F4003B" stroke="black" stroke-width="3" stroke-linejoin="round"/>
</svg>
